assets/inst.svg

<svg width="32" height="32" viewBox="0 0 32 32" fill="none" xmlns="http://www.w3.org/2000/svg">
<path d="M4.6875 32H27.3125C29.8972 32 32 29.8972 32 27.3125V4.6875C32 2.10278 29.8972 0 27.3125 0H4.6875C2.10278 0 0 2.10278 0 4.6875V27.3125C0 29.8972 2.10278 32 4.6875 32ZM1.875 4.6875C1.875 3.13672 3.13672 1.875 4.6875 1.875H27.3125C28.8633 1.875 30.125 3.13672 30.125 4.6875V27.3125C30.125 28.8633 28.8633 30.125 27.3125 30.125H4.6875C3.13672 30.125 1.875 28.8633 1.875 27.3125V4.6875Z" fill="white"/>
<path d="M16 24.4375C20.6523 24.4375 24.4375 20.6524 24.4375 16C24.4375 11.3477 20.6523 7.5625 16 7.5625C11.3477 7.5625 7.5625 11.3477 7.5625 16C7.5625 20.6524 11.3477 24.4375 16 24.4375ZM16 9.4375C19.6187 9.4375 22.5625 12.3814 22.5625 16C22.5625 19.6187 19.6187 22.5625 16 22.5625C12.3813 22.5625 9.4375 19.6187 9.4375 16C9.4375 12.3814 12.3813 9.4375 16 9.4375Z" fill="white"/>
<path d="M25.375 9.43754C26.9258 9.43754 28.1875 8.17581 28.1875 6.62502C28.1875 5.07423 26.9258 3.8125 25.375 3.8125C23.8242 3.8125 22.5625 5.07423 22.5625 6.62502C22.5625 8.17581 23.8242 9.43754 25.375 9.43754ZM25.375 5.68751C25.8918 5.68751 26.3125 6.10817 26.3125 6.62502C26.3125 7.14187 25.8918 7.56253 25.375 7.56253C24.8582 7.56253 24.4375 7.14187 24.4375 6.62502C24.4375 6.10817 24.8582 5.68751 25.375 5.68751Z" fill="white"/>
</svg>

<svg width="32" height="32" fill="none" xmlns="http://www.w3.org/2000/svg"><path d="M4.688 32h22.625A4.693 4.693 0 0032 27.312V4.688A4.693 4.693 0 0027.312 0H4.688A4.693 4.693 0 000 4.688v22.625A4.693 4.693 0 004.688 32zM1.874 4.687a2.816 2.816 0 012.813-2.812h22.625a2.816 2.816 0 012.812 2.813v22.625a2.816 2.816 0 01-2.813 2.812H4.688a2.816 2.816 0 01-2.812-2.813V4.688z" fill="#fff"/><path d="M16 24.438c4.652 0 8.438-3.786 8.438-8.438 0-4.652-3.786-8.438-8.438-8.438-4.652 0-8.438 3.786-8.438 8.438 0 4.652 3.786 8.438 8.438 8.438zm0-15A6.57 6.57 0 0122.563 16 6.57 6.57 0 0116 22.563 6.57 6.57 0 019.437 16 6.57 6.57 0 0116 9.437zm9.375 0a2.816 2.816 0 002.813-2.813 2.816 2.816 0 00-2.813-2.813 2.816 2.816 0 00-2.813 2.813 2.816 2.816 0 002.813 2.813zm0-3.75a.939.939 0 010 1.875.939.939 0 010-1.875z" fill="#fff"/></svg>
